!!!OTL: "Mit einem Marienkaeferlein" MARIENWUERMCHEN SETZE DICH
!!!ARE: Europa, Mitteleuropa, Deutschland, Rhein
!!!SCT: Z1372
!!!YEM: Copyright 1995, estate of Helmut Schaffrath.
**kern
*ICvox
*Ivox
*M4/4
*k[b-]
*F:
{8c
8c
8c
=1
4.f
8f
4.g
8g
=2
2a
8r}
{8a
8b-
8a
=3
4a
4.g
8g
8a
8g
=4
4g
4.f}
{8f
8g
8a
=5
2b-
2g
=6
4e
4f
8r}
{8f
8f
8a
=7
4.cc
8cc
4.cc
8a
=8
2f
4r}
{8f
8a
=9
4.b-
8b-
8b-
8b-
8g
8g
=10
2e
4r}
{8g
8b-
=11
4a
4f
4r
8g
8b-
=12
4a
4f
4.b-
8g
=13
4e
4f
8r}
==
!!!AGN: Kinder - Lied
!!!ONB: ESAC (Essen Associative Code) Database: ZUCCAL
!!!AMT: simple quadruple
!!!AIN: vox
!!!EED: Helmut Schaffrath
!!!EEV: 1.0
*-
